icons/recycle.svg

<svg width="24" height="24" viewBox="0 0 24 24" fill="none" xmlns="http://www.w3.org/2000/svg">
<path fill-rule="evenodd" clip-rule="evenodd" d="M10.7622 2.27588C11.1989 2.07576 11.6771 1.98225 12.157 2.00278C12.6369 2.0233 13.1054 2.1573 13.5233 2.39411C13.9413 2.63095 14.297 2.96396 14.56 3.36605C14.5694 3.38048 14.5785 3.39515 14.5871 3.41004L17.6246 8.6236L18.5138 8.11488C18.8646 7.91417 19.3017 7.94437 19.6216 8.1914C19.9415 8.43843 20.0812 8.85373 19.9757 9.24388L19.2359 11.9798C19.0922 12.5113 18.546 12.8266 18.014 12.6853L15.2531 11.9522C14.8611 11.8481 14.5708 11.5176 14.5182 11.1154C14.4656 10.7133 14.6611 10.3192 15.0131 10.1177L15.8886 9.61683L12.8743 4.44305C12.7878 4.31682 12.6728 4.21094 12.5374 4.13419C12.3955 4.05384 12.2358 4.00798 12.0715 4.00095C11.9072 3.99392 11.7439 4.02598 11.5954 4.09406L11.1788 3.18497L11.5954 4.09406C11.4619 4.15523 11.3442 4.24371 11.2496 4.35277L10.6882 5.27172C10.4003 5.74303 9.78487 5.89169 9.31357 5.60378C8.84227 5.31587 8.6936 4.70041 8.98151 4.22911L9.57878 3.2514C9.59918 3.218 9.62153 3.18582 9.64571 3.15504C9.94246 2.77719 10.3255 2.47601 10.7622 2.27588ZM7.51195 7.28325C8.04402 7.14197 8.59022 7.45731 8.73392 7.98874L9.4737 10.7247C9.57919 11.1149 9.43946 11.5301 9.11958 11.7772C8.7997 12.0242 8.36257 12.0544 8.01176 11.8537L7.12261 11.345L4.10039 16.5323C4.0336 16.6691 3.99937 16.8188 4.00001 16.9701C4.00068 17.1285 4.03955 17.2848 4.11388 17.4261C4.18823 17.5675 4.29612 17.6901 4.42928 17.7831C4.54937 17.867 4.68671 17.9245 4.83189 17.9514L5.91719 17.9737C6.46935 17.9851 6.90777 18.4419 6.89641 18.9941C6.88505 19.5463 6.42822 19.9847 5.87605 19.9733L4.72298 19.9496C4.68432 19.9488 4.64574 19.9458 4.60743 19.9405C4.13154 19.8751 3.6777 19.6978 3.2839 19.4227C2.89005 19.1475 2.56745 18.7824 2.34378 18.3571C2.12009 17.9318 2.00206 17.4591 2.00003 16.9785C1.99799 16.498 2.11203 16.0243 2.33213 15.5971C2.34003 15.5818 2.34833 15.5666 2.35702 15.5517L5.38659 10.3517L4.51108 9.85084C4.15904 9.64942 3.96353 9.25532 4.01613 8.85316C4.06874 8.451 4.35905 8.12044 4.75105 8.01635L7.51195 7.28325ZM19.8103 14.3674C20.2932 14.0994 20.902 14.2736 21.17 14.7565L21.7258 15.7579C21.7448 15.7922 21.7618 15.8276 21.7767 15.8639C21.959 16.3086 22.0314 16.7904 21.9876 17.269C21.9438 17.7476 21.7851 18.2082 21.5255 18.6126C21.2658 19.0169 20.913 19.3528 20.497 19.5932C20.081 19.8335 19.6137 19.9713 19.134 19.9958C19.117 19.9967 19.1 19.9971 19.0829 19.9971H13.009V21C13.009 21.4036 12.7664 21.7677 12.3938 21.923C12.0213 22.0783 11.5919 21.9944 11.3051 21.7103L9.28403 19.7075C9.09453 19.5197 8.98792 19.2639 8.98792 18.9971C8.98792 18.7304 9.09453 18.4746 9.28403 18.2868L11.3051 16.284C11.5919 15.9999 12.0213 15.916 12.3938 16.0713C12.7664 16.2266 13.009 16.5906 13.009 16.9943V17.9971H19.0532C19.2099 17.9859 19.3615 17.9393 19.4965 17.8614C19.6376 17.7799 19.756 17.6667 19.8426 17.5319C19.9291 17.3971 19.9815 17.2445 19.9959 17.0867C20.0089 16.9451 19.991 16.8024 19.9435 16.6681L19.4213 15.7271C19.1532 15.2442 19.3274 14.6354 19.8103 14.3674Z" fill="black"/>
</svg>

<svg
  width="24"
  height="24"
  viewBox="0 0 24 24"
  xmlns="http://www.w3.org/2000/svg"
>
  <path
    fill-rule="evenodd"
    clip-rule="evenodd"
    d="M10.762 2.276a3.037 3.037 0 0 1 3.798 1.09c.01.014.018.03.027.044l3.038 5.214.889-.51a1 1 0 0 1 1.462 1.13l-.74 2.736a1 1 0 0 1-1.222.705l-2.76-.733a1 1 0 0 1-.24-1.834l.875-.501-3.015-5.174a1.015 1.015 0 0 0-.803-.442 1.037 1.037 0 0 0-.476.093l-.416-.909.416.91a1.02 1.02 0 0 0-.345.258l-.562.919a1 1 0 1 1-1.706-1.043l.597-.978a.998.998 0 0 1 .067-.096c.296-.378.68-.679 1.116-.88zm-3.25 5.007a1 1 0 0 1 1.222.706l.74 2.736a1 1 0 0 1-1.462 1.129l-.89-.509L4.1 16.532a.988.988 0 0 0 .33 1.251c.12.084.257.141.402.168l1.085.023a1 1 0 0 1-.04 2l-1.154-.024a.993.993 0 0 1-.116-.01 3.032 3.032 0 0 1-1.323-.517A3.009 3.009 0 0 1 2 16.979a2.988 2.988 0 0 1 .357-1.427l3.03-5.2-.876-.501a1 1 0 0 1 .24-1.835l2.76-.733zm12.298 7.084a1 1 0 0 1 1.36.39l.556 1c.019.035.036.07.05.107a2.986 2.986 0 0 1-.25 2.749 3.015 3.015 0 0 1-2.443 1.384h-6.074V21a1 1 0 0 1-1.704.71l-2.021-2.003a1 1 0 0 1 0-1.42l2.021-2.003a1 1 0 0 1 1.704.71v1.003h6.044a1.035 1.035 0 0 0 .79-.465.99.99 0 0 0 .1-.864l-.522-.94a1 1 0 0 1 .39-1.36z"
  />
</svg>
